X:1
T:Farewell to Fiunary
B:Singing Together, Autumn 1971, BBC Publications
F:http://www.folkinfo.org/songs
M:6/8     %Meter
L:1/8     %
K:G
G |G2 G d2 B |A2 G F2 A |B2 E E2 F | E2 D D2
w:The wind is fair, the day is fine And swift-ly, swift-ly runs the time;
 D |E2 E G2 G |A2 B d2 d |e2 e d2 B | A2 G G3 |
w:The boat is float-ing on the tide That wafts me off from Fiu-na-ry.
G2 G d2 B |A2 G F3 |B2 E E2 F | E2 D D3 |
w: We must up and haste a-way, We must up and haste a-way,
E2 E G2 G |A2 B d2 d |e2 e d2 B | A2 G G3 |]
w:We must up and haste a-way, Fare-well, fare-well to Fiu-na-ry.
W:The wind is fair, the day is fine
W:And swiftly, swiftly runs the time;
W:The boat is floating on the tide
W:That wafts me off from Fiunary.
W:
W:
W:(Chorus)
W:We must up and haste away,
W:We must up and haste away,
W:We must up and haste away,
W:Farewell, farewell to Fiunary.
W:
W:A thousand, thousand tender ties,
W:Awake this day my plaintive sighs;
W:My heart within me almost dies
W:At thought of leaving Fiunary.
W:
W:But I must leave those happy vales,
W:See, see they spread the flapping sails!
W:Adieu, adieu my native dales!
W:Farewell, farewell to Fiunary.
W:
W:
